Catalina-dark/devices/16/drive-removable-media.svg

<?xml version="1.0" encoding="UTF-8" standalone="no"?>
<!-- Created with Inkscape (http://www.inkscape.org/) -->

<svg
   xmlns:dc="http://purl.org/dc/elements/1.1/"
   xmlns:cc="http://creativecommons.org/ns#"
   xmlns:rdf="http://www.w3.org/1999/02/22-rdf-syntax-ns#"
   xmlns:svg="http://www.w3.org/2000/svg"
   xmlns="http://www.w3.org/2000/svg"
   xmlns:sodipodi="http://sodipodi.sourceforge.net/DTD/sodipodi-0.dtd"
   xmlns:inkscape="http://www.inkscape.org/namespaces/inkscape"
   id="svg7384"
   sodipodi:docname="drive-removable-media.svg"
   version="1.1"
   inkscape:version="0.92.4 (5da689c313, 2019-01-14)"
   height="36"
   width="36">
  <metadata
     id="metadata90">
    <rdf:RDF>
      <cc:Work
         rdf:about="">
        <dc:format>image/svg+xml</dc:format>
        <dc:type
           rdf:resource="http://purl.org/dc/dcmitype/StillImage" />
        <dc:title>Gnome Symbolic Icon Theme</dc:title>
      </cc:Work>
    </rdf:RDF>
  </metadata>
  <sodipodi:namedview
     inkscape:cy="19.919765"
     pagecolor="#ffffff"
     borderopacity="1"
     showborder="true"
     inkscape:bbox-paths="false"
     guidetolerance="10"
     inkscape:window-width="1920"
     showguides="true"
     inkscape:object-nodes="true"
     inkscape:snap-bbox="true"
     inkscape:pageshadow="2"
     inkscape:guide-bbox="true"
     inkscape:snap-nodes="true"
     bordercolor="#666666"
     objecttolerance="10"
     id="namedview88"
     showgrid="false"
     inkscape:window-maximized="1"
     inkscape:window-x="0"
     inkscape:snap-global="true"
     inkscape:window-y="28"
     gridtolerance="10"
     inkscape:window-height="1026"
     inkscape:snap-to-guides="true"
     inkscape:current-layer="layer13"
     inkscape:zoom="16"
     inkscape:cx="6.194455"
     inkscape:snap-grids="true"
     inkscape:pageopacity="1">
    <inkscape:grid
       spacingx="1"
       spacingy="1"
       id="grid4866"
       empspacing="2"
       enabled="true"
       type="xygrid"
       snapvisiblegridlinesonly="true"
       visible="true"
       originx="0"
       originy="0" />
  </sodipodi:namedview>
  <title
     id="title9167">Gnome Symbolic Icon Theme</title>
  <defs
     id="defs7386" />
  <g
     inkscape:label="status"
     transform="translate(-442,-156)"
     inkscape:groupmode="layer"
     id="layer9"
     style="display:inline" />
  <g
     inkscape:label="devices"
     transform="translate(-442,-156)"
     inkscape:groupmode="layer"
     id="layer10" />
  <g
     inkscape:label="apps"
     transform="translate(-442,-156)"
     inkscape:groupmode="layer"
     id="layer11" />
  <g
     inkscape:label="actions"
     transform="translate(-442,-156)"
     inkscape:groupmode="layer"
     id="layer12" />
  <g
     inkscape:label="places"
     transform="translate(-442,-156)"
     inkscape:groupmode="layer"
     id="layer13">
    <path
       style="opacity:1;fill:#000000;fill-opacity:0.21243523"
       d="M 7.9863281 2 C 6.8860381 2 6.10933 2.8914781 6 3.9863281 L 4 24.013672 C 3.89067 25.108522 4.8860381 26 5.9863281 26 L 11.257812 26 L 28 26 L 30 26 L 30.013672 26 C 31.113962 26 32.10933 25.108522 32 24.013672 L 30 3.9863281 C 29.89064 2.8914781 29.113972 2 28.013672 2 L 28 2 L 26 2 L 13.257812 2 L 7.9863281 2 z M 18.394531 3.4414062 C 18.434671 3.4399063 18.474872 3.4445781 18.513672 3.4550781 C 18.631162 3.4874081 18.727491 3.5715337 18.775391 3.6835938 C 18.777391 3.6872937 18.77925 3.6913125 18.78125 3.6953125 L 18.785156 3.7050781 L 20.023438 6.5722656 C 20.137428 6.8363256 19.94386 7.1307994 19.65625 7.1308594 L 18.982422 7.1308594 L 18.982422 14.316406 C 19.071102 14.237506 19.142022 14.129541 19.232422 14.056641 C 19.955202 13.473991 20.695107 12.999046 21.154297 12.410156 C 21.161297 12.354886 21.169781 12.280694 21.175781 12.183594 C 21.187481 11.948984 21.192453 11.641441 21.189453 11.337891 C 21.186953 11.093801 21.177875 10.866397 21.171875 10.654297 L 20.679688 10.654297 C 20.458477 10.654487 20.279107 10.475116 20.279297 10.253906 L 20.279297 7.7949219 C 20.279107 7.5737119 20.458478 7.3943412 20.679688 7.3945312 L 23.134766 7.3945312 C 23.355976 7.3943412 23.535346 7.5737119 23.535156 7.7949219 L 23.535156 10.253906 C 23.535346 10.475116 23.355976 10.654487 23.134766 10.654297 L 22.421875 10.654297 C 22.427575 10.863727 22.433547 11.081842 22.435547 11.326172 C 22.438647 11.644942 22.440681 11.967367 22.425781 12.248047 C 22.418381 12.385847 22.408825 12.513916 22.390625 12.634766 C 22.378405 12.716086 22.354124 12.900556 22.240234 13.072266 C 22.235534 13.078866 22.231562 13.085797 22.226562 13.091797 L 22.224609 13.095703 C 22.213309 13.110903 22.2009 13.125272 22.1875 13.138672 L 22.222656 13.095703 C 21.568016 13.984663 20.662335 14.507987 20.015625 15.029297 C 19.362795 15.555537 18.990234 15.961896 18.990234 16.759766 C 18.990234 16.785366 18.987422 16.810837 18.982422 16.835938 L 18.982422 18.890625 C 18.983422 18.897425 18.983375 18.894356 18.984375 18.910156 C 18.986375 18.936856 18.985422 18.963634 18.982422 18.990234 L 18.982422 20.166016 C 19.778682 20.438416 20.404297 21.101248 20.404297 21.986328 C 20.404297 23.099418 19.493949 24.009766 18.380859 24.009766 C 17.267779 24.009766 16.355469 23.100438 16.355469 21.986328 C 16.355469 21.117198 16.958862 20.462484 17.732422 20.177734 L 17.732422 18.996094 C 17.636572 18.265964 17.005356 17.600764 16.259766 16.964844 C 15.879616 16.640614 15.483184 16.328055 15.152344 15.984375 C 14.822794 15.642015 14.504 15.217676 14.5 14.666016 C 14.4966 14.166336 14.509578 13.829224 14.517578 13.427734 C 13.860728 13.132194 13.355469 12.546113 13.355469 11.783203 C 13.355469 10.745973 14.206097 9.9003906 15.242188 9.9003906 C 16.278278 9.9003906 17.126953 10.747113 17.126953 11.783203 C 17.126953 12.619553 16.523905 13.238352 15.765625 13.482422 C 15.758025 13.870912 15.747 14.19554 15.75 14.65625 C 15.7502 14.68495 15.813251 14.870418 16.050781 15.117188 C 16.291071 15.366797 16.669762 15.670089 17.070312 16.011719 C 17.297292 16.205309 17.502932 16.486937 17.732422 16.716797 L 17.732422 7.1308594 L 17.097656 7.1308594 C 16.807876 7.1298394 16.615265 6.8305963 16.734375 6.5664062 L 18.03125 3.7089844 C 18.03495 3.6976844 18.039922 3.6866812 18.044922 3.6757812 C 18.107622 3.5377113 18.242991 3.4474063 18.394531 3.4414062 z "
       transform="translate(442,156)"
       id="path4250" />
    <path
       inkscape:connector-curvature="0"
       style="opacity:0.813;fill:#000000;fill-opacity:0.63730568"
       d="m 450.10352,156 c -2.27338,0 -3.87497,1.84165 -4.10352,4.10352 l -2,19.79296 c -0.006,0.0568 -0.003,0.11172 -0.006,0.16797 -0.002,-0.0564 -0.0117,-0.11098 -0.0117,-0.16797 l 0,8 c 0,2.27338 1.83014,4.10352 4.10352,4.10352 l 23.79297,0 c 2.27338,0 4.10351,-1.83014 4.10351,-4.10352 l 0,-7.17382 c 0.0389,-0.26683 0.0462,-0.54344 0.0176,-0.82618 l -2,-19.79296 C 473.77145,157.84165 472.16986,156 469.89648,156 l -19.79296,0 z m -0.11719,2 5.27148,0 12.74219,0 2,0 0.0137,0 c 1.10029,0 1.877,0.89148 1.98633,1.98633 l 2,20.02734 C 474.10933,181.10852 473.11396,182 472.01367,182 l -0.0137,0 -2,0 -16.74219,0 -5.27148,0 c -1.10029,0 -2.09566,-0.89148 -1.98633,-1.98633 l 2,-20.02734 C 448.10933,158.89148 448.88604,158 449.98633,158 Z m -4.00391,25.42187 c 0.63454,0.35847 1.36117,0.57813 2.1211,0.57813 l 23.79296,0 c 0.74595,0 1.45944,-0.21225 2.08594,-0.55859 l 0,4.57226 c 0,1.10029 -0.88604,1.98633 -1.98633,1.98633 l -0.0137,0 -2,0 -16.74218,0 -5.27149,0 c -1.10029,0 -1.98633,-0.88604 -1.98633,-1.98633 l 0,-4.5918 z"
       id="rect4156" />
    <rect
       y="-472"
       x="186"
       height="2"
       width="2"
       id="rect4328"
       style="opacity:0.75;fill:#000000;fill-opacity:1;stroke:none"
       transform="matrix(0,1,-1,0,0,0)" />
    <path
       style="opacity:0.2;fill:#000000;fill-opacity:0.90196078"
       d="M 6.0683594 30.009766 C 5.3224094 30.009766 4.6089219 30.222019 3.9824219 30.568359 L 3.9824219 32.013672 C 3.9824219 33.113962 4.86846 34 5.96875 34 L 29.996094 34 C 31.096384 34 31.982422 33.113962 31.982422 32.013672 L 31.982422 30.587891 C 31.347882 30.229421 30.621258 30.009766 29.861328 30.009766 L 6.0683594 30.009766 z "
       id="path4172"
       transform="translate(442,156)" />
  </g>
  <g
     inkscape:label="mimetypes"
     transform="translate(-442,-156)"
     inkscape:groupmode="layer"
     id="layer14" />
  <g
     inkscape:label="emblems"
     transform="translate(-442,-156)"
     inkscape:groupmode="layer"
     id="layer15"
     style="display:inline" />
</svg>

<svg width="36" height="36" version="1.1" xmlns="http://www.w3.org/2000/svg">
<g transform="translate(-442,-156)">
<path transform="translate(442,156)" d="m7.9863 2c-1.1003 0-1.877 0.89148-1.9863 1.9863l-2 20.027c-0.10933 1.0948 0.88604 1.9863 1.9863 1.9863h5.2715 16.742 2 0.013672c1.1003 0 2.0957-0.89148 1.9863-1.9863l-2-20.027c-0.10936-1.0948-0.88603-1.9863-1.9863-1.9863h-0.013672-2-12.742-5.2715zm10.408 1.4414c0.04014-0.0014999 0.080341 0.0031719 0.11914 0.013672 0.11749 0.03233 0.21382 0.11646 0.26172 0.22852 2e-3 0.0036999 0.003859 0.0077187 0.005859 0.011719l0.003906 0.0097656 1.2383 2.8672c0.11399 0.26406-0.079578 0.55853-0.36719 0.55859h-0.67383v7.1855c0.08868-0.0789 0.1596-0.18686 0.25-0.25976 0.72278-0.58265 1.4627-1.0576 1.9219-1.6465 7e-3 -0.05527 0.015484-0.12946 0.021484-0.22656 0.0117-0.23461 0.016672-0.54215 0.013672-0.8457-0.0025-0.24409-0.011578-0.47149-0.017578-0.68359h-0.49219c-0.22121 1.9e-4 -0.40058-0.17918-0.40039-0.40039v-2.459c-1.9e-4 -0.22121 0.17918-0.40058 0.40039-0.40039h2.4551c0.22121-1.9e-4 0.40058 0.17918 0.40039 0.40039v2.459c1.9e-4 0.22121-0.17918 0.40058-0.40039 0.40039h-0.71289c0.0057 0.20943 0.011672 0.42754 0.013672 0.67188 0.0031 0.31877 0.005134 0.6412-0.009766 0.92188-0.0074 0.1378-0.016956 0.26587-0.035156 0.38672-0.01222 0.08132-0.036501 0.26579-0.15039 0.4375-0.0047 0.0066-0.008672 0.013531-0.013672 0.019531l-0.001953 0.003906c-0.0113 0.0152-0.023709 0.029569-0.037109 0.042969l0.035156-0.042969c-0.65464 0.88896-1.5603 1.4123-2.207 1.9336-0.65283 0.52624-1.0254 0.9326-1.0254 1.7305 0 0.0256-0.002812 0.051071-0.007812 0.076172v2.0547c1e-3 0.0068 9.53e-4 0.003731 0.001953 0.019531 2e-3 0.0267 0.001047 0.053478-0.001953 0.080078v1.1758c0.79626 0.2724 1.4219 0.93523 1.4219 1.8203 0 1.1131-0.91035 2.0234-2.0234 2.0234-1.1131 0-2.0254-0.90933-2.0254-2.0234 0-0.86913 0.60339-1.5238 1.377-1.8086v-1.1816c-0.09585-0.73013-0.72707-1.3953-1.4727-2.0312-0.38015-0.32423-0.77658-0.63679-1.1074-0.98047-0.32955-0.34236-0.64834-0.7667-0.65234-1.3184-0.0034-0.49968 0.009578-0.83679 0.017578-1.2383-0.65685-0.29554-1.1621-0.88162-1.1621-1.6445 0-1.0372 0.85063-1.8828 1.8867-1.8828 1.0361 0 1.8848 0.84672 1.8848 1.8828 0 0.83635-0.60305 1.4551-1.3613 1.6992-0.0076 0.38849-0.018625 0.71312-0.015625 1.1738 2e-4 0.0287 0.063251 0.21417 0.30078 0.46094 0.24029 0.24961 0.61898 0.5529 1.0195 0.89453 0.22698 0.19359 0.43262 0.47522 0.66211 0.70508v-9.5859h-0.63477c-0.28978-0.00102-0.48239-0.30026-0.36328-0.56445l1.2969-2.8574c0.0037-0.0113 0.008672-0.022303 0.013672-0.033203 0.0627-0.13807 0.19807-0.22837 0.34961-0.23438z" fill-opacity=".21244"/>
<path d="m450.1 156c-2.2734 0-3.875 1.8416-4.1035 4.1035l-2 19.793c-6e-3 0.0568-3e-3 0.11172-6e-3 0.16797-2e-3 -0.0564-0.0117-0.11098-0.0117-0.16797v8c0 2.2734 1.8301 4.1035 4.1035 4.1035h23.793c2.2734 0 4.1035-1.8301 4.1035-4.1035v-7.1738c0.0389-0.26683 0.0462-0.54344 0.0176-0.82618l-2-19.793c-0.22845-2.2619-1.83-4.1035-4.1034-4.1035h-19.793zm-0.11719 2h5.2715 12.742 2 0.0137c1.1003 0 1.877 0.89148 1.9863 1.9863l2 20.027c0.1093 1.0948-0.88607 1.9863-1.9864 1.9863h-0.0137-2-16.742-5.2715c-1.1003 0-2.0957-0.89148-1.9863-1.9863l2-20.027c0.10936-1.0948 0.88607-1.9863 1.9864-1.9863zm-4.0039 25.422c0.63454 0.35847 1.3612 0.57813 2.1211 0.57813h23.793c0.74595 0 1.4594-0.21225 2.0859-0.55859v4.5723c0 1.1003-0.88604 1.9863-1.9863 1.9863h-0.0137-2-16.742-5.2715c-1.1003 0-1.9863-0.88604-1.9863-1.9863v-4.5918z" fill-opacity=".63731" opacity=".813"/>
<rect transform="rotate(90)" x="186" y="-472" width="2" height="2" opacity=".75"/>
<path transform="translate(442,156)" d="m6.0684 30.01c-0.74595 0-1.4594 0.21225-2.0859 0.55859v1.4453c0 1.1003 0.88604 1.9863 1.9863 1.9863h24.027c1.1003 0 1.9863-0.88604 1.9863-1.9863v-1.4258c-0.63454-0.35847-1.3612-0.57812-2.1211-0.57812h-23.793z" fill-opacity=".90196" opacity=".2"/>
</g>
</svg>
